storage/app/icons/phosphoricons/duotone/oven-duotone.svg

<svg xmlns="http://www.w3.org/2000/svg" fill="currentColor" viewBox="0 0 256 256"><path d="M184 112v72H72v-72Z" opacity=".2"/><path d="M208 32H48a16 16 0 0 0-16 16v160a16 16 0 0 0 16 16h160a16 16 0 0 0 16-16V48a16 16 0 0 0-16-16m0 176H48V48h160zM72 76a12 12 0 1 1 12 12 12 12 0 0 1-12-12m44 0a12 12 0 1 1 12 12 12 12 0 0 1-12-12m44 0a12 12 0 1 1 12 12 12 12 0 0 1-12-12m24 28H72a8 8 0 0 0-8 8v72a8 8 0 0 0 8 8h112a8 8 0 0 0 8-8v-72a8 8 0 0 0-8-8m-8 72H80v-56h96Z"/></svg>

<svg xmlns="http://www.w3.org/2000/svg" viewBox="0 0 256 256" fill="currentColor"><path d="M184,112v72H72V112Z" opacity="0.2"/><path d="M208,32H48A16,16,0,0,0,32,48V208a16,16,0,0,0,16,16H208a16,16,0,0,0,16-16V48A16,16,0,0,0,208,32Zm0,176H48V48H208V208ZM72,76A12,12,0,1,1,84,88,12,12,0,0,1,72,76Zm44,0a12,12,0,1,1,12,12A12,12,0,0,1,116,76Zm44,0a12,12,0,1,1,12,12A12,12,0,0,1,160,76Zm24,28H72a8,8,0,0,0-8,8v72a8,8,0,0,0,8,8H184a8,8,0,0,0,8-8V112A8,8,0,0,0,184,104Zm-8,72H80V120h96Z"/></svg>
